X:39
T:Violin Sonata RV 6 - Allemanda
C:Vivaldi, A.
M:4/4
L:1/8
Q:1/4=80
K:G
|:D2|G4 AB cd|e4 d2 G2|A4 Bc de|f4 e2 A2|
B4 cd ef|g4 f2 B2|c4 BA GF|G4 G2:|

